src/icons/scalable/actions/permissions-system-devices-symbolic.svg

<?xml version="1.0" encoding="UTF-8"?>
<!--
  SPDX-License-Identifier: CC0-1.0
  SPDX-FileCopyrightText: 2024 GNOME Foundation, Inc.
-->
<svg width="16" height="16" version="1.1" xmlns="http://www.w3.org/2000/svg">
 <path d="m8.0312 0.99609c-0.031 0-0.066562-9.375e-5 -0.10156 0.0039062a1.002 1.002 0 0 0-0.91797 0.99219l-0.0078126 1.0078h-1.9883l0.019531-0.98047a1.009 1.009 0 0 0-0.3125-0.74609 0.98 0.98 0 0 0-0.76172-0.26953 0.995 0.995 0 0 0-0.92578 0.98047l-0.023437 1.2773a3.302 3.302 0 0 0-2.0117 3.0469v4.3867c0 1.375 0.83153 2.5469 2.0195 3.0469v1.2578a1 1 0 1 0 2 0v-1h1.9805v1c0 0.55 0.45 1 1 1 0.55 0 1-0.45 1-1v-1h2v1c0 0.55 0.45 1 1 1s1-0.45 1-1v-1.2656c1.18-0.507 2-1.6751 2-3.0391v-4.3848c0-1.368-0.8201-2.5331-1.9961-3.0371l0.011719-1.2637a1.007 1.007 0 0 0-1.0859-1.0098 0.996 0.996 0 0 0-0.91406 0.99219l-0.011719 1.0078h-1.9961l0.0078125-0.99219c4e-3 -0.551-0.43447-0.99972-0.98047-1.0117h-0.0039062zm-3.7227 4.0039h0.0019531 7.3848c0.722 0 1.3047 0.58159 1.3047 1.3086v3.6914c0 0.484-0.406 1-1 1h-4-3.9805c-0.551 0-1.0195-0.453-1.0195-1v-3.6895c0-0.728 0.58159-1.3105 1.3086-1.3105z" fill="#222"/>
</svg>

<svg xmlns="http://www.w3.org/2000/svg" width="16" height="16"><path fill="#222" d="M8.031.996Q7.984.995 7.93 1a1 1 0 0 0-.918.992L7.004 3H5.016l.02-.98a1 1 0 0 0-.313-.747.98.98 0 0 0-.762-.27.995.995 0 0 0-.926.981l-.023 1.278A3.3 3.3 0 0 0 1 6.309v4.386c0 1.375.831 2.547 2.02 3.047V15a1 1 0 1 0 2 0v-1H7v1c0 .55.45 1 1 1s1-.45 1-1v-1h2v1c0 .55.45 1 1 1s1-.45 1-1v-1.266c1.18-.507 2-1.675 2-3.039V6.31c0-1.368-.82-2.533-1.996-3.037l.012-1.263A1.007 1.007 0 0 0 11.93 1a.996.996 0 0 0-.914.992L11.004 3H9.008l.008-.992c.004-.551-.435-1-.98-1.012zM4.308 5h7.387C12.417 5 13 5.582 13 6.309V10c0 .484-.406 1-1 1H4.02C3.467 11 3 10.547 3 10V6.31C3 5.582 3.582 5 4.309 5"/></svg>
